Origami/16x16/apps/fuse.svg

<svg width="16" height="16" version="1.1" viewBox="0 0 16 16" xmlns="http://www.w3.org/2000/svg">
 <rect transform="matrix(0,-1,-1,0,0,0)" x="-16" y="-16" width="16" height="16" rx=".857" ry=".857" style="fill:#4f4f4f"/>
 <path d="m16 2-14 14h2.5l11.5-11.5z" style="fill:#f24c3d"/>
 <path d="m16 4.5-11.5 11.5h2.5l9-9z" style="fill:#e6df15"/>
 <path d="m16 7-9 9h2.5l6.5-6.5z" style="fill:#66dd23"/>
 <path d="m16 9.5-6.5 6.5h2.5l4-4z" style="fill:#24f0ff"/>
</svg>

<svg xmlns="http://www.w3.org/2000/svg" width="16" height="16" version="1.1" viewBox="0 0 16 16">
 <rect style="fill:#4f4f4f" width="16" height="16" x="-16" y="-16" rx=".857" ry=".857" transform="matrix(0,-1,-1,0,0,0)"/>
 <path style="fill:#f24c3d" d="M 16,2 2,16 H 4.5 L 16,4.5 Z"/>
 <path style="fill:#e6df15" d="M 16,4.5 4.5,16 H 7 l 9,-9 z"/>
 <path style="fill:#66dd23" d="M 16,7 7,16 H 9.5 L 16,9.5 Z"/>
 <path style="fill:#24f0ff" d="M 16,9.5 9.5,16 H 12 l 4,-4 z"/>
</svg>
